icons/linear-new-symbol-arrow-up-right-share.svg

<svg xmlns="http://www.w3.org/2000/svg" width="32px" height="32px" viewBox="0 0 32 32" version="1.1">
    <title>linear-new-symbol-arrow-up-right-share</title>
    <g id="linear-new-symbol-arrow-up-right-share" stroke-width="1" fill-rule="evenodd">
        <path d="M16,3 L16,5 L5,5 L5,27 L27,27 L27,16 L29,16 L29,28 C29,28.5522847 28.5522847,29 28,29 L4,29 C3.44771525,29 3,28.5522847 3,28 L3,4 C3,3.44771525 3.44771525,3 4,3 L16,3 Z M20,5 L20,3 L28,3 L28.0752385,3.00278786 L28.2007258,3.02024007 L28.3121425,3.04973809 L28.4232215,3.09367336 L28.5207088,3.14599545 L28.6170223,3.21292769 L28.7071408,3.29291093 C28.7425008,3.32828727 28.774687,3.36567442 28.8036654,3.40469339 L28.8753288,3.5159379 L28.9287745,3.62866398 L28.9641549,3.73400703 L28.9930928,3.8819045 L29,4 L29,12 L27,12 L27,6.414 L16.7071068,16.7071068 C16.3165825,17.0976311 15.6834175,17.0976311 15.2928932,16.7071068 C14.9023689,16.3165825 14.9023689,15.6834175 15.2928932,15.2928932 L25.584,5 L20,5 Z" id="&#24418;&#29366;" fill-rule="nonzero" />
    </g>
</svg>

<svg xmlns="http://www.w3.org/2000/svg" viewBox="0 0 32 32"><path fill="currentColor" d="M16 3v2H5v22h22V16h2v12a1 1 0 0 1-1 1H4a1 1 0 0 1-1-1V4a1 1 0 0 1 1-1zm4 2V3h8l.075.003.126.017.111.03.111.044.098.052.096.067.09.08c.036.035.068.073.097.112l.071.11.054.114.035.105.03.148L29 4v8h-2V6.414L16.707 16.707a1 1 0 0 1-1.414-1.414L25.584 5z"/></svg>
